X:1
T:Old Skyball Paint
C:Bob Nolan
M:4/4
L:1/4
K:G
%%staves{RH1}
V:RH1 clef=treble
|G G A A/2A/2|G E C C/2D/2|E E C A,|G,3 G,
w:v1~Sky-ball Paint was a De-vils saint, and his eyes was~a fie-ry red Good
w:I won't brag, but I rode this nag til his blood be-gan to boil, then~I
|C C C D|E G G E|D D D E|D3 G
w:men have tried this horse to ride, but all of them are dead. Now
w:hit the ground and ate three pounds of good ol' Tex-as soil. Singin'
|A2 D2|(3DDD B,2|C C A, A,|B, B, G, G,|A, A,/2A,/2 G, F, G,|A, A,/2A,/2 G, F, G,||
w:"Hi-ho yip-pee ti oh" ride 'em high and down you go

Skyball Paint was a Devil's saint, and his eyes was a fiery red
Good men have tried this horse to ride, but all of them are dead
Now, I won't brag, but I rode this nag til his blood began to boil
then I hit the ground and ate three pounds of good ol' Texas soil
singin' 'Hi-ho yippee ti oh' ride em high and down you go

I swore by heck I'd break his neck for the jolt he give my pride
so I threw my noose on that old cayouse and once more took a ride
I turned around, pretty soon I found his head where his tail should be
so I said says I 'Perhaps he's shy. Or he just don't care for me'
singin 'Hi-ho yippee ti oh' ride em high and down you go

In town one day I chanced to stray upon old Sheriff Jim
for a whoop an' a holler an' a counterfeit dollar I sold that nag to him
But when he plants the seat of his pants in Skyballs' leather chair
I'll bet two bits when Skyball quits ol' Jim will not be there
singin 'Hi-ho yippee ti oh' ride em high and down you go
